X:1
T:Title
%%score { 1 | 2 }
L:1/8
M:6/8
K:Ab
V:1 treble nm="Grand Piano"
V:2 bass 
V:1
 z3 z2[Q:1/4=94] C | F2 =E F2 C | G2 F G2 C | A2 G A2 B | c2 (3d/e/d/ c2 c | c2 B =A2 F | %6
 B2 A G2 =E | A2 G F2 =E | F2 (3G/A/G/ .F3 |] %9
V:2
 z6 | F,3 .[A,C]3 | =E,3 .[B,C]3 | F,3 [A,C]3 | F,3 [F,A,C]3 | F,3 [=A,C]3 | F,3 [B,D]3 | %7
 .[F,F]3 [B,C]3 | [F,A,C]3 .[F,A,C]3 |] %9

